material/.icons/material/folder-information.svg

<svg xmlns="http://www.w3.org/2000/svg" viewBox="0 0 24 24"><path d="M21 11.1V8c0-1.1-.9-2-2-2h-8L9 4H3c-1.1 0-2 .9-2 2v12c0 1.1.9 2 2 2h7.3c1.3 1.9 3.5 3 5.7 3 3.9 0 7-3.1 7-7 0-1.8-.7-3.6-2-4.9M16 21c-2.8 0-5-2.2-5-5s2.2-5 5-5 5 2.2 5 5-2.2 5-5 5m1-1h-2v-5h2v5m0-6h-2v-2h2v2z"/></svg>

<?xml version="1.0" encoding="UTF-8"?><!DOCTYPE svg PUBLIC "-//W3C//DTD SVG 1.1//EN" "http://www.w3.org/Graphics/SVG/1.1/DTD/svg11.dtd"><svg xmlns="http://www.w3.org/2000/svg" xmlns:xlink="http://www.w3.org/1999/xlink" version="1.1" id="mdi-folder-information" width="24" height="24" viewBox="0 0 24 24"><path d="M21 11.1V8C21 6.9 20.1 6 19 6H11L9 4H3C1.9 4 1 4.9 1 6V18C1 19.1 1.9 20 3 20H10.3C11.6 21.9 13.8 23 16 23C19.9 23 23 19.9 23 16C23 14.2 22.3 12.4 21 11.1M16 21C13.2 21 11 18.8 11 16S13.2 11 16 11 21 13.2 21 16 18.8 21 16 21M17 20H15V15H17V20M17 14H15V12H17V14Z" /></svg>
